svg/emoji_u1f347.svg

<svg width="128" height="128" viewBox="0 0 128 128" fill="none" xmlns="http://www.w3.org/2000/svg">
<path d="M35.8799 45.1499C30.4899 51.2399 34.3099 59.4499 34.3099 59.4499L19.5699 69.0599C19.5699 69.0599 17.3699 70.0599 15.0899 73.1199C13.4199 75.3599 29.5299 96.5099 29.5299 96.5099C29.5299 96.5099 32.1499 96.0299 34.2899 95.0999C36.4899 94.1399 39.1899 91.6399 39.1899 91.6399L56.6299 109.39C56.6299 109.39 57.9299 111.39 60.6099 112.01C64.2899 112.87 65.6599 111.46 65.6599 111.46L88.3999 117.07C88.3999 117.07 89.5399 118.35 90.6799 119.18C91.8199 120.01 93.6799 120.78 93.6799 120.78L112.17 100.87C112.17 100.87 110.96 99.0199 109.9 97.8999C108.28 96.1799 106.04 95.0599 106.04 95.0599L105.36 73.1099C105.36 73.1099 104.01 72.2499 100.33 71.5999C96.3799 70.8999 93.5799 69.3199 93.5799 69.3199L88.0799 50.2199L89.8399 47.9399C89.8399 47.9399 93.2699 41.6099 88.4899 40.0499C83.7099 38.4899 72.0899 37.5599 72.0899 37.5599L69.1799 28.1099C69.1799 28.1099 67.6899 29.6299 66.6499 31.3899C65.6099 33.1499 64.8199 35.3799 64.8199 35.3799L47.4799 40.8799L45.2399 40.9899C45.2599 40.9699 40.5199 39.8999 35.8799 45.1499Z" fill="#660F2E" style="fill:#660F2E;fill:color(display-p3 0.4000 0.0588 0.1804);fill-opacity:1;"/>
<path d="M25.2399 55.0799C25.2399 55.0799 33.0999 53.7899 32.9899 52.8499C32.8899 51.9199 32.6499 41.3999 32.7999 41.3999C32.8999 41.3999 37.1499 42.5999 40.9199 43.6399C45.6899 44.9599 48.0799 45.8299 48.0799 45.8299L50.0499 38.8699C50.0499 38.8699 46.4199 37.6199 41.3299 35.9599C37.2399 34.6299 32.6899 33.3499 32.0299 32.5699C30.8899 31.2199 28.0199 27.1799 27.6799 23.5499C27.0599 16.7999 30.4199 13.7399 34.9899 13.5399C39.4499 13.3399 41.6299 15.9299 43.2999 16.0299C44.9599 16.1299 46.6099 13.2999 45.5799 10.2199C43.9199 5.23991 35.7199 2.72991 28.7599 5.02991C18.9999 8.24991 18.0699 20.3899 19.5199 25.6899C21.5099 32.9499 25.0199 37.2099 25.0199 37.2099L25.2399 55.0799Z" fill="#727F37" style="fill:#727F37;fill:color(display-p3 0.4471 0.4980 0.2157);fill-opacity:1;"/>
<path d="M52.6499 33.49C45.9999 36.71 40.6899 49 49.9499 57.37C57.5299 64.22 68.0099 60.48 71.2299 54.98C74.0199 50.21 74.9699 42.63 70.8099 37.64C66.6499 32.65 59.6199 30.11 52.6499 33.49Z" fill="#BD245B" style="fill:#BD245B;fill:color(display-p3 0.7417 0.1422 0.3572);fill-opacity:1;"/>
<path d="M69.19 28.1099C69.19 28.1099 71.42 25.6799 75.23 24.6799C78.4 23.8499 82.92 23.6199 87.89 26.9799C93.1 30.4999 94.15 36.3899 93.48 41.2599C92.78 46.2999 89.96 50.6499 87.11 51.4399C81.5 52.9999 89.91 49.9899 88.46 47.2899C87.01 44.5899 78.94 48.8199 72.26 40.7499C67.28 34.7399 69.19 28.1099 69.19 28.1099Z" fill="#BD245B" style="fill:#BD245B;fill:color(display-p3 0.7417 0.1422 0.3572);fill-opacity:1;"/>
<path d="M74.1401 60.4802C71.5001 68.3902 75.2801 77.3002 84.6301 79.3702C93.9701 81.4502 99.5801 75.3202 101.86 69.9202C104.14 64.5202 102.07 53.8302 92.8301 51.0302C83.5901 48.2302 76.4201 53.6302 74.1401 60.4802Z" fill="#BD245B" style="fill:#BD245B;fill:color(display-p3 0.7417 0.1422 0.3572);fill-opacity:1;"/>
<path d="M46.6301 73.87C44.2501 81.39 48.5001 88.3 53.6901 90.9C60.2701 94.19 70.0901 91.32 72.7901 83.43C75.2801 76.16 73.4101 67.86 65.5201 64.95C57.6301 62.04 49.2201 65.67 46.6301 73.87Z" fill="#BD245B" style="fill:#BD245B;fill:color(display-p3 0.7417 0.1422 0.3572);fill-opacity:1;"/>
<path d="M19.2201 60.9002C16.9801 67.6302 19.2201 76.6802 28.3601 79.3802C37.5001 82.0802 43.4301 76.3702 45.3901 69.7302C46.9501 64.4402 46.6401 55.8202 36.9801 52.1902C27.5601 48.6402 21.1901 54.9802 19.2201 60.9002Z" fill="#BD245B" style="fill:#BD245B;fill:color(display-p3 0.7417 0.1422 0.3572);fill-opacity:1;"/>
<path d="M83.3701 82.4502C80.3201 83.0402 78.6701 85.8202 77.3001 89.0802C74.9301 94.6802 72.4601 96.2002 71.5401 98.2302C70.3601 100.83 73.7701 103.05 75.1701 103.83C77.5601 105.16 86.7201 106.68 90.7101 98.7802C95.8101 88.6602 87.8601 81.5802 83.3701 82.4502Z" fill="#BD245B" style="fill:#BD245B;fill:color(display-p3 0.7417 0.1422 0.3572);fill-opacity:1;"/>
<path d="M100.53 96.6601C100.6 97.7501 112.55 97.2001 112.4 85.0801C112.28 75.7901 105.32 73.0801 105.32 73.0801C105.32 73.0801 100.76 76.4501 100.92 82.2201C101.08 88.0001 102.2 87.1301 101.85 91.8401C101.74 93.3101 100.5 96.2601 100.53 96.6601Z" fill="#BD245B" style="fill:#BD245B;fill:color(display-p3 0.7417 0.1422 0.3572);fill-opacity:1;"/>
<path d="M112.24 100.87C112.24 100.87 104.22 101.21 99.57 107.54C95.24 113.44 93.71 120.79 93.71 120.79C93.71 120.79 104.76 126.59 111.54 119.13C119.12 110.77 112.24 100.87 112.24 100.87Z" fill="#BD245B" style="fill:#BD245B;fill:color(display-p3 0.7417 0.1422 0.3572);fill-opacity:1;"/>
<path d="M65.6201 107.45C64.1701 108.27 63.2801 114.35 66.1701 118.95C67.7001 121.38 70.4801 123.57 74.5801 124.19C80.1901 125.04 84.0601 122.81 86.6501 120.07C89.6301 116.92 90.6401 112.88 89.7601 111.32C88.1001 108.4 83.7801 112.36 76.4401 111.25C69.1001 110.15 68.1401 106.03 65.6201 107.45Z" fill="#BD245B" style="fill:#BD245B;fill:color(display-p3 0.7417 0.1422 0.3572);fill-opacity:1;"/>
<path d="M40.54 88.0502C39.24 88.3202 34.66 93.3302 35.1 99.6802C35.3 102.57 36.05 105.57 39.1 108.7C43.3 113 49.3 113.48 53.32 112.34C57 111.29 59.7 108.89 59.78 106.82C59.87 104.29 59.5 101.72 55.05 99.8802C53.03 99.0502 49.69 98.1402 46.45 95.4602C41.17 91.0802 41.86 87.7702 40.54 88.0502Z" fill="#BD245B" style="fill:#BD245B;fill:color(display-p3 0.7417 0.1422 0.3572);fill-opacity:1;"/>
<path d="M15.2101 73.0601C15.2101 73.0601 12.7901 75.8701 11.9901 80.0801C11.4401 83.0001 11.2501 86.3401 13.6101 90.1501C19.0801 98.9901 29.5901 96.5001 29.5901 96.5001C29.5901 96.5001 34.3101 92.7801 32.3501 88.0101C31.7301 86.4901 30.3901 85.8001 27.5101 84.6501C22.5601 82.6701 19.6201 79.6001 18.1201 77.5501C16.6301 75.5101 15.2101 73.0601 15.2101 73.0601Z" fill="#BD245B" style="fill:#BD245B;fill:color(display-p3 0.7417 0.1422 0.3572);fill-opacity:1;"/>
<path d="M86.78 54.6599C85.29 52.9699 80.31 54.4199 77.87 60.0999C76.01 64.4099 76.29 71.0999 80.71 71.8499C85.72 72.6999 82.84 65.6299 84.89 61.5999C86.22 58.9899 88.51 56.6399 86.78 54.6599Z" fill="#E882AF" style="fill:#E882AF;fill:color(display-p3 0.9083 0.5109 0.6863);fill-opacity:1;"/>
<path d="M58.9899 67.8502C56.8599 65.4802 52.5199 68.3202 50.6299 73.2102C47.9599 80.1002 51.4299 83.5402 53.0799 83.2302C55.9999 82.6802 55.7599 79.1302 57.1799 75.5802C58.2999 72.8002 61.0599 70.1502 58.9899 67.8502Z" fill="#E882AF" style="fill:#E882AF;fill:color(display-p3 0.9083 0.5109 0.6863);fill-opacity:1;"/>
<path d="M75.0199 26.79C72.8199 26.38 72.1699 28.93 72.1699 30.62C72.1699 32.31 72.5199 34.09 74.2199 34.18C75.8199 34.27 76.5399 32.67 76.7999 30.35C77.0299 28.39 76.4499 27.06 75.0199 26.79Z" fill="#E882AF" style="fill:#E882AF;fill:color(display-p3 0.9083 0.5109 0.6863);fill-opacity:1;"/>
<path d="M56.9899 35.7998C54.2599 34.2998 50.0299 37.1898 49.0599 43.7198C48.2299 49.3498 50.4099 53.0298 53.4999 52.3098C56.9799 51.4998 56.0399 46.3498 56.8699 43.4498C57.7399 40.4198 59.4899 37.1798 56.9899 35.7998Z" fill="#E882AF" style="fill:#E882AF;fill:color(display-p3 0.9083 0.5109 0.6863);fill-opacity:1;"/>
<path d="M28.9299 56.1798C25.4199 55.3798 23.0899 58.8598 22.5399 62.4098C22.0999 65.2098 22.6599 69.1598 25.4599 69.7498C28.4599 70.3798 30.8999 66.7498 31.2999 63.8298C31.6899 60.9098 31.6899 56.8098 28.9299 56.1798Z" fill="#E882AF" style="fill:#E882AF;fill:color(display-p3 0.9083 0.5109 0.6863);fill-opacity:1;"/>
<path d="M15.9001 80.8099C14.1701 81.0199 13.5301 83.8899 14.4001 86.2499C15.2701 88.6199 16.2901 89.7199 18.1101 89.2499C20.1401 88.7199 18.7401 85.8599 18.1901 84.1999C17.6301 82.5499 17.8701 80.5799 15.9001 80.8099Z" fill="#E882AF" style="fill:#E882AF;fill:color(display-p3 0.9083 0.5109 0.6863);fill-opacity:1;"/>
<path d="M40.37 94.0398C38.08 94.2798 37.12 97.2798 37.81 100.65C38.37 103.36 40.38 106.31 42.9 105.35C45.49 104.37 43.38 101.28 42.73 98.8098C42.07 96.3498 42.49 93.8198 40.37 94.0398Z" fill="#E882AF" style="fill:#E882AF;fill:color(display-p3 0.9083 0.5109 0.6863);fill-opacity:1;"/>
<path d="M84.21 90.1902C82.34 88.7702 80.04 90.2302 78.44 92.5902C76.84 94.9502 76.78 96.9302 78.35 98.1902C80.08 99.5802 82.69 98.4702 84.1 96.2302C85.3 94.3202 86.18 91.6902 84.21 90.1902Z" fill="#E882AF" style="fill:#E882AF;fill:color(display-p3 0.9083 0.5109 0.6863);fill-opacity:1;"/>
<path d="M68.4799 111.31C66.5299 111.46 65.9499 113.35 66.4999 115.6C66.9499 117.44 68.3899 118.63 69.8299 118.04C71.0599 117.53 71.8399 115.93 71.1099 113.51C70.5699 111.77 69.4699 111.23 68.4799 111.31Z" fill="#E882AF" style="fill:#E882AF;fill:color(display-p3 0.9083 0.5109 0.6863);fill-opacity:1;"/>
</svg>

<?xml version="1.0" encoding="utf-8"?>
<!-- Generator: Adobe Illustrator 25.2.3, SVG Export Plug-In . SVG Version: 6.00 Build 0)  -->
<svg version="1.1" id="Layer_2" xmlns="http://www.w3.org/2000/svg" xmlns:xlink="http://www.w3.org/1999/xlink" x="0px" y="0px"
	 viewBox="0 0 128 128" style="enable-background:new 0 0 128 128;" xml:space="preserve">
<path style="fill:#4C186E;" d="M35.88,45.15c-5.39,6.09-1.57,14.3-1.57,14.3l-14.74,9.61c0,0-2.2,1-4.48,4.06
	c-1.67,2.24,14.44,23.39,14.44,23.39s2.62-0.48,4.76-1.41c2.2-0.96,4.9-3.46,4.9-3.46l17.44,17.75c0,0,1.3,2,3.98,2.62
	c3.68,0.86,5.05-0.55,5.05-0.55l22.74,5.61c0,0,1.14,1.28,2.28,2.11c1.14,0.83,3,1.6,3,1.6l18.49-19.91c0,0-1.21-1.85-2.27-2.97
	c-1.62-1.72-3.86-2.84-3.86-2.84l-0.68-21.95c0,0-1.35-0.86-5.03-1.51c-3.95-0.7-6.75-2.28-6.75-2.28l-5.5-19.1l1.76-2.28
	c0,0,3.43-6.33-1.35-7.89c-4.78-1.56-16.4-2.49-16.4-2.49l-2.91-9.45c0,0-1.49,1.52-2.53,3.28c-1.04,1.76-1.83,3.99-1.83,3.99
	l-17.34,5.5l-2.24,0.11C45.26,40.97,40.52,39.9,35.88,45.15z"/>
<path style="fill:#727F37;" d="M25.24,55.08c0,0,7.86-1.29,7.75-2.23c-0.1-0.93-0.34-11.45-0.19-11.45c0.1,0,4.35,1.2,8.12,2.24
	c4.77,1.32,7.16,2.19,7.16,2.19l1.97-6.96c0,0-3.63-1.25-8.72-2.91c-4.09-1.33-8.64-2.61-9.3-3.39c-1.14-1.35-4.01-5.39-4.35-9.02
	c-0.62-6.75,2.74-9.81,7.31-10.01c4.46-0.2,6.64,2.39,8.31,2.49c1.66,0.1,3.31-2.73,2.28-5.81c-1.66-4.98-9.86-7.49-16.82-5.19
	c-9.76,3.22-10.69,15.36-9.24,20.66c1.99,7.26,5.5,11.52,5.5,11.52L25.24,55.08z"/>
<path style="fill:#A363B1;" d="M52.65,33.49C46,36.71,40.69,49,49.95,57.37c7.58,6.85,18.06,3.11,21.28-2.39
	c2.79-4.77,3.74-12.35-0.42-17.34S59.62,30.11,52.65,33.49z"/>
<path style="fill:#A363B1;" d="M69.19,28.11c0,0,2.23-2.43,6.04-3.43c3.17-0.83,7.69-1.06,12.66,2.3c5.21,3.52,6.26,9.41,5.59,14.28
	c-0.7,5.04-3.52,9.39-6.37,10.18c-5.61,1.56,2.8-1.45,1.35-4.15c-1.45-2.7-9.52,1.53-16.2-6.54C67.28,34.74,69.19,28.11,69.19,28.11
	z"/>
<path style="fill:#A363B1;" d="M74.14,60.48c-2.64,7.91,1.14,16.82,10.49,18.89c9.34,2.08,14.95-4.05,17.23-9.45
	c2.28-5.4,0.21-16.09-9.03-18.89S76.42,53.63,74.14,60.48z"/>
<path style="fill:#A363B1;" d="M46.63,73.87c-2.38,7.52,1.87,14.43,7.06,17.03c6.58,3.29,16.4,0.42,19.1-7.47
	c2.49-7.27,0.62-15.57-7.27-18.48C57.63,62.04,49.22,65.67,46.63,73.87z"/>
<path style="fill:#A363B1;" d="M19.22,60.9c-2.24,6.73,0,15.78,9.14,18.48c9.14,2.7,15.07-3.01,17.03-9.65
	c1.56-5.29,1.25-13.91-8.41-17.54C27.56,48.64,21.19,54.98,19.22,60.9z"/>
<path style="fill:#A363B1;" d="M83.37,82.45c-3.05,0.59-4.7,3.37-6.07,6.63c-2.37,5.6-4.84,7.12-5.76,9.15
	c-1.18,2.6,2.23,4.82,3.63,5.6c2.39,1.33,11.55,2.85,15.54-5.05C95.81,88.66,87.86,81.58,83.37,82.45z"/>
<path style="fill:#A363B1;" d="M100.53,96.66c0.07,1.09,12.02,0.54,11.87-11.58c-0.12-9.29-7.08-12-7.08-12s-4.56,3.37-4.4,9.14
	c0.16,5.78,1.28,4.91,0.93,9.62C101.74,93.31,100.5,96.26,100.53,96.66z"/>
<path style="fill:#A363B1;" d="M112.24,100.87c0,0-8.02,0.34-12.67,6.67c-4.33,5.9-5.86,13.25-5.86,13.25s11.05,5.8,17.83-1.66
	C119.12,110.77,112.24,100.87,112.24,100.87z"/>
<path style="fill:#A363B1;" d="M65.62,107.45c-1.45,0.82-2.34,6.9,0.55,11.5c1.53,2.43,4.31,4.62,8.41,5.24
	c5.61,0.85,9.48-1.38,12.07-4.12c2.98-3.15,3.99-7.19,3.11-8.75c-1.66-2.92-5.98,1.04-13.32-0.07
	C69.1,110.15,68.14,106.03,65.62,107.45z"/>
<path style="fill:#A363B1;" d="M40.54,88.05c-1.3,0.27-5.88,5.28-5.44,11.63c0.2,2.89,0.95,5.89,4,9.02
	c4.2,4.3,10.2,4.78,14.22,3.64c3.68-1.05,6.38-3.45,6.46-5.52c0.09-2.53-0.28-5.1-4.73-6.94c-2.02-0.83-5.36-1.74-8.6-4.42
	C41.17,91.08,41.86,87.77,40.54,88.05z"/>
<path style="fill:#A363B1;" d="M15.21,73.06c0,0-2.42,2.81-3.22,7.02c-0.55,2.92-0.74,6.26,1.62,10.07
	c5.47,8.84,15.98,6.35,15.98,6.35s4.72-3.72,2.76-8.49c-0.62-1.52-1.96-2.21-4.84-3.36c-4.95-1.98-7.89-5.05-9.39-7.1
	C16.63,75.51,15.21,73.06,15.21,73.06z"/>
<path style="fill:#DABCF3;" d="M86.78,54.66c-1.49-1.69-6.47-0.24-8.91,5.44c-1.86,4.31-1.58,11,2.84,11.75
	c5.01,0.85,2.13-6.22,4.18-10.25C86.22,58.99,88.51,56.64,86.78,54.66z"/>
<path style="fill:#DABCF3;" d="M58.99,67.85c-2.13-2.37-6.47,0.47-8.36,5.36c-2.67,6.89,0.8,10.33,2.45,10.02
	c2.92-0.55,2.68-4.1,4.1-7.65C58.3,72.8,61.06,70.15,58.99,67.85z"/>
<path style="fill:#DABCF3;" d="M75.02,26.79c-2.2-0.41-2.85,2.14-2.85,3.83c0,1.69,0.35,3.47,2.05,3.56
	c1.6,0.09,2.32-1.51,2.58-3.83C77.03,28.39,76.45,27.06,75.02,26.79z"/>
<path style="fill:#DABCF3;" d="M56.99,35.8c-2.73-1.5-6.96,1.39-7.93,7.92c-0.83,5.63,1.35,9.31,4.44,8.59
	c3.48-0.81,2.54-5.96,3.37-8.86C57.74,40.42,59.49,37.18,56.99,35.8z"/>
<path style="fill:#DABCF3;" d="M28.93,56.18c-3.51-0.8-5.84,2.68-6.39,6.23c-0.44,2.8,0.12,6.75,2.92,7.34c3,0.63,5.44-3,5.84-5.92
	C31.69,60.91,31.69,56.81,28.93,56.18z"/>
<path style="fill:#DABCF3;" d="M15.9,80.81c-1.73,0.21-2.37,3.08-1.5,5.44c0.87,2.37,1.89,3.47,3.71,3
	c2.03-0.53,0.63-3.39,0.08-5.05C17.63,82.55,17.87,80.58,15.9,80.81z"/>
<path style="fill:#DABCF3;" d="M40.37,94.04c-2.29,0.24-3.25,3.24-2.56,6.61c0.56,2.71,2.57,5.66,5.09,4.7
	c2.59-0.98,0.48-4.07-0.17-6.54C42.07,96.35,42.49,93.82,40.37,94.04z"/>
<path style="fill:#DABCF3;" d="M84.21,90.19c-1.87-1.42-4.17,0.04-5.77,2.4s-1.66,4.34-0.09,5.6c1.73,1.39,4.34,0.28,5.75-1.96
	C85.3,94.32,86.18,91.69,84.21,90.19z"/>
<path style="fill:#DABCF3;" d="M68.48,111.31c-1.95,0.15-2.53,2.04-1.98,4.29c0.45,1.84,1.89,3.03,3.33,2.44
	c1.23-0.51,2.01-2.11,1.28-4.53C70.57,111.77,69.47,111.23,68.48,111.31z"/>
</svg>
